<?xml version="1.0" encoding="UTF-8"?>
<map version="1.10" tiledversion="1.12.2" orientation="orthogonal" renderorder="right-down" width="32" height="17" tilewidth="16" tileheight="16" infinite="0" nextlayerid="3" nextobjectid="1">
 <editorsettings>
  <export target="lvl1.csv" format="csv"/>
 </editorsettings>
 <tileset firstgid="1" source="road.tsx"/>
 <tileset firstgid="625" source="grass.tsx"/>
 <tileset firstgid="835" source="Props.tsx"/>
 <tileset firstgid="1123" source="paletero_man.tsx"/>
 <tileset firstgid="1131" source="buses_cars.tsx"/>
 <layer id="1" name="Tile Layer 1" width="32" height="17">
  <data encoding="csv">
650,651,652,799,799,650,651,652,800,366,163,164,165,166,366,798,799,650,651,652,799,366,799,650,651,652,799,366,799,650,651,652,
671,672,673,799,799,671,672,673,800,366,189,190,191,192,366,798,799,671,672,673,799,366,799,671,672,673,799,366,799,671,672,673,
692,693,694,799,799,692,693,694,800,366,163,164,165,166,366,798,799,692,693,694,799,366,799,692,693,694,799,366,799,692,693,694,
713,714,715,799,799,713,714,715,800,366,189,190,191,192,366,798,799,713,714,715,799,366,799,713,714,715,799,366,799,713,714,715,
734,735,736,820,820,734,735,736,821,366,22,23,24,25,366,819,820,734,735,736,820,366,820,734,735,736,820,366,820,734,735,736,
366,366,366,366,366,366,366,366,366,366,48,49,50,51,366,366,366,366,366,366,366,366,366,366,366,366,366,366,366,366,366,366,
2684354749,2684354723,2684354749,2684354723,2684354749,2684354723,2684354749,2684354723,2684354749,2684354723,251,252,253,254,2684354608,2684354582,2684354749,2684354723,2684354749,2684354723,2684354749,2684354723,2684354749,2684354723,2684354749,2684354723,2684354749,2684354723,2684354749,2684354723,2684354749,2684354723,
2684354750,2684354724,2684354750,2684354724,2684354750,2684354724,2684354750,2684354724,2684354750,2684354724,163,164,165,166,2684354609,2684354583,2684354750,2684354724,2684354750,2684354724,2684354750,2684354724,2684354750,2684354724,2684354750,2684354724,2684354750,2684354724,2684354750,2684354724,2684354750,2684354724,
2684354751,2684354725,2684354751,2684354725,2684354751,2684354725,2684354751,2684354725,2684354751,2684354725,189,190,191,192,2684354610,2684354584,2684354751,2684354725,2684354751,2684354725,2684354751,2684354725,2684354751,2684354725,2684354751,2684354725,2684354751,2684354725,2684354751,2684354725,2684354751,2684354725,
2684354752,2684354726,2684354752,2684354726,2684354752,2684354726,2684354752,2684354726,2684354752,2684354726,329,330,331,332,2684354611,2684354585,2684354752,2684354726,2684354752,2684354726,2684354752,2684354726,2684354752,2684354726,2684354752,2684354726,2684354752,2684354726,2684354752,2684354726,2684354752,2684354726,
366,366,366,366,366,366,366,366,366,366,7,8,9,10,366,366,366,366,366,366,366,366,366,366,366,366,366,366,366,366,366,366,
629,630,631,778,366,778,629,630,631,366,33,34,35,36,366,777,778,629,630,631,778,366,778,629,630,631,778,366,778,629,630,631,
650,651,652,799,366,799,650,651,652,366,33,34,35,36,366,798,799,650,651,652,799,366,799,650,651,652,799,366,799,650,651,652,
671,672,673,799,366,799,671,672,673,366,7,8,9,10,366,798,799,671,672,673,799,366,799,671,672,673,799,366,799,671,672,673,
692,693,694,799,366,799,692,693,694,366,33,34,35,36,366,798,799,692,693,694,799,366,799,692,693,694,799,366,799,692,693,694,
713,714,715,799,366,799,713,714,715,366,7,8,9,10,366,798,799,713,714,715,799,366,799,713,714,715,799,366,799,713,714,715,
734,735,736,799,366,799,734,735,736,366,33,34,35,36,366,798,799,734,735,736,799,366,799,734,735,736,799,366,799,734,735,736
</data>
 </layer>
 <layer id="2" name="Tile Layer 2" width="32" height="17">
  <data encoding="csv">
782,783,784,0,0,782,783,784,0,0,1133,1134,0,0,0,0,0,782,783,784,0,0,0,782,783,784,0,0,0,782,783,784,
803,804,805,0,925,803,804,805,0,0,1143,1144,0,0,0,0,0,803,804,805,0,925,0,803,804,805,0,925,0,803,804,805,
0,0,0,1073,949,0,0,0,1073,0,1153,1154,0,0,0,0,0,0,0,0,1073,949,0,0,0,0,1073,949,0,0,0,0,
0,0,0,1097,973,0,0,0,1097,0,1163,1164,0,0,0,0,0,0,0,0,1097,973,0,0,0,0,1097,973,0,0,0,0,
0,0,0,1121,997,0,0,0,1121,0,0,0,919,920,0,0,0,0,0,0,1121,997,0,0,0,0,1121,997,0,0,0,0,
0,0,0,0,1021,0,0,0,0,0,944,944,943,944,0,0,0,0,0,0,0,1021,0,0,0,0,0,1021,0,0,0,0,
0,0,0,0,925,0,0,0,1610612761,1610612787,0,0,0,0,0,0,1204,1205,0,0,0,925,0,0,1204,1205,0,0,925,0,0,0,
0,0,0,0,949,0,0,0,1610612760,1610612786,0,0,0,0,0,0,1214,1215,0,0,0,949,0,0,1214,1215,0,0,949,0,0,0,
0,0,0,0,973,0,0,0,1610612759,1610612785,0,0,0,0,0,0,0,0,0,0,0,973,0,0,0,0,0,0,973,0,1204,1205,
0,0,0,0,997,0,0,0,1610612758,1610612784,0,0,0,0,0,0,0,0,0,0,0,997,0,0,0,0,0,0,997,0,1214,1215,
0,0,0,0,1021,0,0,0,0,0,100,101,102,103,0,0,0,0,0,0,0,1021,0,0,0,0,0,0,1021,0,0,0,
803,804,805,0,0,0,803,804,805,0,126,127,128,129,0,0,0,803,804,805,0,0,0,803,804,805,0,0,0,803,804,805,
782,783,784,0,0,0,782,783,784,0,0,0,0,0,0,0,0,782,783,784,0,0,0,782,783,784,0,0,0,782,783,784,
803,804,805,0,0,0,803,804,805,0,0,0,1131,1132,0,0,0,803,804,805,0,0,0,803,804,805,0,0,0,803,804,805,
0,0,0,1073,0,0,0,0,0,0,0,0,1141,1142,0,0,0,0,0,0,1073,0,0,0,0,0,1073,0,0,0,0,0,
725,726,727,1097,0,0,725,726,727,0,0,0,1151,1152,0,0,0,725,726,727,1097,0,0,725,726,727,1097,0,0,725,726,727,
746,747,748,1121,0,0,746,747,748,0,0,0,1161,1162,0,0,0,746,747,748,1121,0,0,746,747,748,1121,0,0,746,747,748
</data>
 </layer>
</map>
